; generated by PrusaSlicer 2.5.0+win64 on 2022-12-19 at 13:07:01 UTC

; filament used [mm] = 60.77
; filament used [cm3] = 0.15
; total filament used [g] = 0.00
; total filament cost = 0.00
; estimated printing time (normal mode) = 4m 20s
; estimated printing time (silent mode) = 4m 22s

; external perimeters extrusion width = 0.45mm
; perimeters extrusion width = 0.45mm
; infill extrusion width = 0.45mm
; solid infill extrusion width = 0.45mm
; top infill extrusion width = 0.40mm
; first layer extrusion width = 0.22mm

M107
;TYPE:Custom
;PETG: (PLA 60/200)
M140 S60 ;Set Bed Temperature
M104 S210 ;Set Hotend Temperature
M190 S60 ;Wait for Bed Temperature
M109 S210 ;Wait for Hotend Temperature
M105 ;Report Temperatures
G28 ;home all axes
M413 S0 ;"Power Loss" OFF (avoid forming short stop-drops!)

G1 Z20 F5000 ; lift nozzle 20mm
G21 ; set units to millimeters
G90 ; use absolute coordinates
M82 ; use absolute distances for extrusion
G92 E0
; Filament gcode
M107
;LAYER_CHANGE
;Z:0.11
;HEIGHT:0.11
G1 Z.11 F7800
G1 E-2 F2400
G92 E0
G1 X88.326 Y87.913 F7800
G1 E2 F2400
;TYPE:Skirt/Brim
;WIDTH:0.22
G1 F1800
G1 X89.019 Y87.216 E2.00882
G1 X90.058 Y86.301 E2.02126
G1 X92.23 Y84.63 E2.04587
G1 X93.361 Y83.874 E2.05809
G1 X95.693 Y82.528 E2.08228
G1 X96.914 Y81.926 E2.0945
G1 X99.402 Y80.895 E2.11869
G1 X100.69 Y80.458 E2.13091
G1 X103.291 Y79.761 E2.1551
G1 X104.626 Y79.495 E2.16732
G1 X107.296 Y79.144 E2.1915
G1 X108.653 Y79.055 E2.20372
G1 X111.347 Y79.055 E2.22792
G1 X112.704 Y79.144 E2.24014
G1 X115.374 Y79.495 E2.26433
G1 X116.709 Y79.761 E2.27654
G1 X119.31 Y80.458 E2.30073
G1 X120.598 Y80.895 E2.31295
G1 X123.086 Y81.926 E2.33714
G1 X124.307 Y82.528 E2.34936
G1 X126.639 Y83.874 E2.37355
G1 X127.77 Y84.63 E2.38577
G1 X129.906 Y86.269 E2.40995
G1 X130.929 Y87.166 E2.42217
G1 X132.833 Y89.07 E2.44636
G1 X133.73 Y90.093 E2.45858
G1 X135.37 Y92.23 E2.48277
G1 X136.112 Y93.34 E2.49476
G1 X137.438 Y95.631 E2.51853
G1 X138.053 Y96.871 E2.53097
G1 X139.105 Y99.402 E2.55558
G1 X139.534 Y100.666 E2.56758
G1 X140.222 Y103.22 E2.59133
G1 X140.49 Y104.553 E2.60354
G1 X140.848 Y107.223 E2.62774
G1 X140.942 Y108.605 E2.64018
G1 X140.945 Y111.347 E2.66481
G1 X140.858 Y112.68 E2.6768
G1 X140.516 Y115.301 E2.70054
G1 X140.254 Y116.636 E2.71276
G1 X139.563 Y119.239 E2.73696
G1 X139.128 Y120.528 E2.74917
G1 X138.104 Y123.018 E2.77335
G1 X137.494 Y124.262 E2.78579
G1 X136.126 Y126.638 E2.81042
G1 X135.384 Y127.749 E2.82242
G1 X133.776 Y129.85 E2.84619
G1 X132.865 Y130.894 E2.85863
G1 X130.93 Y132.833 E2.88324
G1 X129.907 Y133.73 E2.89546
G1 X127.77 Y135.37 E2.91965
G1 X126.639 Y136.126 E2.93186
G1 X124.307 Y137.473 E2.95605
G1 X123.086 Y138.074 E2.96827
G1 X120.598 Y139.105 E2.99246
G1 X119.31 Y139.542 E3.00468
G1 X116.709 Y140.239 E3.02887
G1 X115.374 Y140.505 E3.04109
G1 X112.703 Y140.856 E3.06529
G1 X111.345 Y140.945 E3.07751
G1 X108.655 Y140.945 E3.10168
G1 X107.297 Y140.856 E3.1139
G1 X104.626 Y140.505 E3.1381
G1 X103.291 Y140.239 E3.15031
G1 X100.69 Y139.542 E3.1745
G1 X99.402 Y139.105 E3.18672
G1 X96.914 Y138.074 E3.21091
G1 X95.693 Y137.472 E3.22313
G1 X93.361 Y136.126 E3.24732
G1 X92.23 Y135.37 E3.25954
G1 X90.093 Y133.73 E3.28373
G1 X89.07 Y132.833 E3.29595
G1 X87.167 Y130.93 E3.32012
G1 X86.287 Y129.926 E3.33212
G1 X84.673 Y127.829 E3.35588
G1 X83.915 Y126.7 E3.3681
G1 X82.563 Y124.37 E3.39229
G1 X81.958 Y123.152 E3.40451
G1 X80.922 Y120.667 E3.42869
G1 X80.474 Y119.356 E3.44113
G1 X79.761 Y116.708 E3.46576
G1 X79.5 Y115.399 E3.47775
G1 X79.152 Y112.777 E3.50151
G1 X79.058 Y111.395 E3.51395
G1 X79.055 Y108.653 E3.53858
G1 X79.142 Y107.32 E3.55057
G1 X79.484 Y104.699 E3.57431
G1 X79.746 Y103.364 E3.58653
G1 X80.438 Y100.76 E3.61073
G1 X80.88 Y99.448 E3.62317
G1 X81.925 Y96.915 E3.64778
G1 X82.516 Y95.717 E3.65978
G1 X83.836 Y93.424 E3.68354
G1 X84.589 Y92.292 E3.69575
G1 X86.223 Y90.151 E3.71994
G1 X87.118 Y89.126 E3.73216
G1 X88.283 Y87.955 E3.747
G1 X88.422 Y88.093 F7800
G1 F1800
G1 X89.148 Y87.364 E3.75624
G1 X90.188 Y86.448 E3.76869
G1 X92.339 Y84.793 E3.79306
G1 X93.47 Y84.038 E3.80528
G1 X95.78 Y82.704 E3.82924
G1 X97 Y82.102 E3.84146
G1 X99.465 Y81.081 E3.86542
G1 X100.753 Y80.644 E3.87764
G1 X103.33 Y79.953 E3.9016
G1 X104.664 Y79.688 E3.91381
G1 X107.308 Y79.34 E3.93777
G1 X108.666 Y79.251 E3.94999
G1 X111.334 Y79.251 E3.97395
G1 X112.692 Y79.34 E3.98617
G1 X115.336 Y79.688 E4.01013
G1 X116.67 Y79.953 E4.02235
G1 X119.247 Y80.644 E4.04631
G1 X120.535 Y81.081 E4.05853
G1 X123 Y82.102 E4.08248
G1 X124.22 Y82.704 E4.0947
G1 X126.53 Y84.038 E4.11866
G1 X127.661 Y84.793 E4.13088
G1 X129.776 Y86.417 E4.15483
G1 X130.799 Y87.313 E4.16705
G1 X132.686 Y89.2 E4.19101
G1 X133.583 Y90.223 E4.20323
G1 X135.207 Y92.339 E4.22719
G1 X135.949 Y93.449 E4.23918
G1 X137.262 Y95.718 E4.26272
G1 X137.877 Y96.959 E4.27516
G1 X138.919 Y99.465 E4.29954
G1 X139.348 Y100.729 E4.31153
G1 X140.029 Y103.259 E4.33506
G1 X140.298 Y104.592 E4.34727
G1 X140.652 Y107.236 E4.37124
G1 X140.746 Y108.618 E4.38368
G1 X140.749 Y111.334 E4.40807
G1 X140.662 Y112.667 E4.42007
G1 X140.323 Y115.263 E4.44358
G1 X140.061 Y116.598 E4.4558
G1 X139.376 Y119.177 E4.47977
G1 X138.942 Y120.466 E4.49198
G1 X137.928 Y122.932 E4.51593
G1 X137.318 Y124.175 E4.52837
G1 X135.963 Y126.529 E4.55277
G1 X135.221 Y127.64 E4.56476
G1 X133.628 Y129.721 E4.58831
G1 X132.717 Y130.765 E4.60075
G1 X130.8 Y132.686 E4.62512
G1 X129.777 Y133.583 E4.63734
G1 X127.661 Y135.207 E4.6613
G1 X126.53 Y135.963 E4.67352
G1 X124.22 Y137.296 E4.69747
G1 X123 Y137.898 E4.70969
G1 X120.535 Y138.919 E4.73365
G1 X119.247 Y139.356 E4.74587
G1 X116.67 Y140.047 E4.76983
G1 X115.336 Y140.312 E4.78205
G1 X112.69 Y140.66 E4.80602
G1 X111.333 Y140.749 E4.81824
G1 X108.667 Y140.749 E4.84217
G1 X107.31 Y140.66 E4.85439
G1 X104.664 Y140.312 E4.87836
G1 X103.33 Y140.047 E4.89058
G1 X100.753 Y139.356 E4.91454
G1 X99.465 Y138.919 E4.92676
G1 X97 Y137.898 E4.95072
G1 X95.78 Y137.296 E4.96294
G1 X93.47 Y135.963 E4.98689
G1 X92.339 Y135.207 E4.99911
G1 X90.223 Y133.583 E5.02307
G1 X89.2 Y132.686 E5.03529
G1 X87.315 Y130.801 E5.05923
G1 X86.434 Y129.797 E5.07123
G1 X84.836 Y127.72 E5.09477
G1 X84.078 Y126.59 E5.10698
G1 X82.739 Y124.283 E5.13095
G1 X82.134 Y123.064 E5.14316
G1 X81.108 Y120.603 E5.16711
G1 X80.66 Y119.293 E5.17955
G1 X79.953 Y116.67 E5.20395
G1 X79.693 Y115.36 E5.21594
G1 X79.348 Y112.764 E5.23947
G1 X79.254 Y111.382 E5.25191
G1 X79.251 Y108.666 E5.2763
G1 X79.338 Y107.333 E5.2883
G1 X79.677 Y104.737 E5.31181
G1 X79.939 Y103.402 E5.32403
G1 X80.624 Y100.823 E5.348
G1 X81.066 Y99.51 E5.36044
G1 X82.101 Y97.002 E5.38482
G1 X82.692 Y95.804 E5.39681
G1 X83.999 Y93.533 E5.42034
G1 X84.752 Y92.4 E5.43256
G1 X86.371 Y90.28 E5.45652
G1 X87.266 Y89.255 E5.46874
G1 X88.38 Y88.136 E5.48292
G1 X88.519 Y88.274 F7800
G1 F1800
G1 X89.278 Y87.511 E5.49259
G1 X90.317 Y86.596 E5.50503
G1 X92.448 Y84.957 E5.52918
G1 X93.579 Y84.201 E5.54139
G1 X95.867 Y82.88 E5.56512
G1 X97.087 Y82.278 E5.57734
G1 X99.528 Y81.267 E5.60107
G1 X100.816 Y80.83 E5.61329
G1 X103.368 Y80.146 E5.63702
G1 X104.702 Y79.881 E5.64923
G1 X107.321 Y79.536 E5.67296
G1 X108.679 Y79.447 E5.68518
G1 X111.321 Y79.447 E5.70891
G1 X112.679 Y79.536 E5.72113
G1 X115.298 Y79.881 E5.74486
G1 X116.632 Y80.146 E5.75708
G1 X119.184 Y80.83 E5.7808
G1 X120.472 Y81.267 E5.79302
G1 X122.913 Y82.278 E5.81675
G1 X124.133 Y82.88 E5.82897
G1 X126.421 Y84.201 E5.8527
G1 X127.552 Y84.957 E5.86492
G1 X129.647 Y86.564 E5.88863
G1 X130.67 Y87.461 E5.90085
G1 X132.538 Y89.329 E5.92458
G1 X133.435 Y90.352 E5.9368
G1 X135.043 Y92.448 E5.96053
G1 X135.785 Y93.558 E5.97253
G1 X137.086 Y95.805 E5.99584
G1 X137.701 Y97.046 E6.00828
G1 X138.733 Y99.528 E6.03242
G1 X139.162 Y100.793 E6.04442
G1 X139.836 Y103.297 E6.06771
G1 X140.105 Y104.631 E6.07993
G1 X140.456 Y107.249 E6.10366
G1 X140.55 Y108.631 E6.1161
G1 X140.553 Y111.321 E6.14026
G1 X140.466 Y112.654 E6.15226
G1 X140.13 Y115.225 E6.17555
G1 X139.868 Y116.56 E6.18776
G1 X139.19 Y119.114 E6.2115
G1 X138.756 Y120.403 E6.22371
G1 X137.751 Y122.845 E6.24743
G1 X137.142 Y124.089 E6.25987
G1 X135.8 Y126.42 E6.28403
G1 X135.058 Y127.531 E6.29603
G1 X133.48 Y129.592 E6.31935
G1 X132.569 Y130.636 E6.33179
G1 X130.671 Y132.538 E6.35593
G1 X129.648 Y133.435 E6.36814
G1 X127.552 Y135.043 E6.39187
G1 X126.421 Y135.799 E6.40409
G1 X124.133 Y137.12 E6.42782
G1 X122.913 Y137.722 E6.44004
G1 X120.472 Y138.733 E6.46377
G1 X119.184 Y139.17 E6.47598
G1 X116.632 Y139.854 E6.49971
G1 X115.298 Y140.119 E6.51193
G1 X112.677 Y140.464 E6.53567
G1 X111.32 Y140.553 E6.54789
G1 X108.68 Y140.553 E6.5716
G1 X107.323 Y140.464 E6.58381
G1 X104.702 Y140.119 E6.60755
G1 X103.368 Y139.854 E6.61977
G1 X100.816 Y139.17 E6.6435
G1 X99.528 Y138.733 E6.65572
G1 X97.087 Y137.722 E6.67945
G1 X95.867 Y137.12 E6.69166
G1 X93.579 Y135.799 E6.71539
G1 X92.448 Y135.043 E6.72761
G1 X90.352 Y133.435 E6.75134
G1 X89.329 Y132.538 E6.76356
G1 X87.462 Y130.671 E6.78727
G1 X86.582 Y129.667 E6.79927
G1 X84.999 Y127.61 E6.82258
G1 X84.241 Y126.481 E6.83479
G1 X82.914 Y124.196 E6.85853
G1 X82.31 Y122.977 E6.87074
G1 X81.294 Y120.54 E6.89446
G1 X80.845 Y119.229 E6.9069
G1 X80.146 Y116.632 E6.93106
G1 X79.886 Y115.322 E6.94306
G1 X79.544 Y112.751 E6.96636
G1 X79.45 Y111.369 E6.9788
G1 X79.447 Y108.679 E7.00296
G1 X79.534 Y107.346 E7.01495
G1 X79.87 Y104.775 E7.03824
G1 X80.132 Y103.44 E7.05046
G1 X80.81 Y100.886 E7.0742
G1 X81.252 Y99.573 E7.08664
G1 X82.278 Y97.088 E7.11078
G1 X82.868 Y95.891 E7.12277
G1 X84.163 Y93.642 E7.14608
G1 X84.916 Y92.509 E7.1583
G1 X86.519 Y90.409 E7.18202
G1 X87.414 Y89.385 E7.19424
G1 X88.476 Y88.317 E7.20777
G1 E5.20777 F2400
G92 E0
G1 X100.189 Y111.292 F7800
G1 E2 F2400
;TYPE:Perimeter
;WIDTH:0.219999
G1 F1800
G1 X100.104 Y110 E2.01163
G1 X100.189 Y108.708 E2.02325
G1 X100.436 Y107.463 E2.03466
G1 X100.857 Y106.212 E2.04651
G1 X101.43 Y105.052 E2.05813
G1 X102.149 Y103.976 E2.06976
G1 X103.002 Y103.002 E2.08138
G1 X103.976 Y102.149 E2.09301
G1 X105.052 Y101.43 E2.10464
G1 X106.213 Y100.857 E2.11626
G1 X107.439 Y100.441 E2.12789
G1 X108.708 Y100.189 E2.13951
G1 X110.024 Y100.105 E2.15136
G1 X111.292 Y100.189 E2.16277
G1 X112.561 Y100.441 E2.17439
G1 X113.787 Y100.857 E2.18601
G1 X114.968 Y101.443 E2.19786
G1 X116.024 Y102.149 E2.20927
G1 X116.998 Y103.002 E2.2209
G1 X117.851 Y103.976 E2.23252
G1 X118.557 Y105.032 E2.24393
G1 X119.143 Y106.213 E2.25578
G1 X119.559 Y107.439 E2.2674
G1 X119.811 Y108.708 E2.27903
G1 X119.896 Y110 E2.29065
G1 X119.811 Y111.292 E2.30228
G1 X119.564 Y112.538 E2.31369
G1 X119.143 Y113.788 E2.32554
G1 X118.57 Y114.948 E2.33716
G1 X117.851 Y116.024 E2.34878
G1 X116.998 Y116.998 E2.36041
G1 X116.024 Y117.851 E2.37204
G1 X114.948 Y118.57 E2.38366
G1 X113.787 Y119.143 E2.39529
G1 X112.561 Y119.559 E2.40692
G1 X111.292 Y119.812 E2.41854
G1 X110 Y119.896 E2.43017
G1 X108.708 Y119.812 E2.4418
G1 X107.439 Y119.559 E2.45342
G1 X106.213 Y119.143 E2.46504
G1 X105.032 Y118.557 E2.47689
G1 X103.976 Y117.851 E2.4883
G1 X103.002 Y116.998 E2.49993
G1 X102.149 Y116.024 E2.51155
G1 X101.43 Y114.948 E2.52318
G1 X100.857 Y113.787 E2.5348
G1 X100.441 Y112.561 E2.54643
G1 X100.2 Y111.351 E2.55752
G1 X99.993 Y111.317 F7800
G1 F1800
G1 X99.907 Y110 E2.56938
G1 X99.993 Y108.683 E2.58123
G1 X100.246 Y107.412 E2.59287
G1 X100.676 Y106.137 E2.60495
G1 X101.259 Y104.954 E2.61681
G1 X101.993 Y103.856 E2.62866
G1 X102.863 Y102.863 E2.64052
G1 X103.856 Y101.993 E2.65238
G1 X104.954 Y101.259 E2.66424
G1 X106.138 Y100.675 E2.67609
G1 X107.388 Y100.251 E2.68795
G1 X108.682 Y99.993 E2.69981
G1 X110.025 Y99.909 E2.71189
G1 X111.317 Y99.993 E2.72352
G1 X112.612 Y100.251 E2.73538
G1 X113.862 Y100.675 E2.74723
G1 X115.067 Y101.273 E2.75931
G1 X116.144 Y101.993 E2.77095
G1 X117.137 Y102.863 E2.78281
G1 X118.007 Y103.856 E2.79467
G1 X118.727 Y104.933 E2.8063
G1 X119.325 Y106.138 E2.81838
G1 X119.749 Y107.388 E2.83024
G1 X120.007 Y108.683 E2.8421
G1 X120.093 Y110 E2.85395
G1 X120.007 Y111.317 E2.86581
G1 X119.754 Y112.588 E2.87745
G1 X119.324 Y113.863 E2.88953
G1 X118.741 Y115.046 E2.90138
G1 X118.007 Y116.144 E2.91324
G1 X117.137 Y117.137 E2.9251
G1 X116.144 Y118.007 E2.93695
G1 X115.046 Y118.741 E2.94881
G1 X113.862 Y119.325 E2.96067
G1 X112.612 Y119.749 E2.97253
G1 X111.317 Y120.007 E2.98439
G1 X110 Y120.093 E2.99624
G1 X108.683 Y120.007 E3.0081
G1 X107.388 Y119.749 E3.01996
G1 X106.138 Y119.325 E3.03181
G1 X104.933 Y118.727 E3.04389
G1 X103.856 Y118.007 E3.05553
G1 X102.863 Y117.137 E3.06739
G1 X101.993 Y116.144 E3.07924
G1 X101.259 Y115.046 E3.0911
G1 X100.675 Y113.862 E3.10296
G1 X100.251 Y112.612 E3.11482
G1 X100.005 Y111.376 E3.12614
G1 X99.798 Y111.338 F7800
;TYPE:External perimeter
G1 F1800
G1 X99.71 Y110 E3.13818
G1 X99.798 Y108.657 E3.15027
G1 X100.056 Y107.361 E3.16214
G1 X100.494 Y106.062 E3.17445
G1 X101.089 Y104.855 E3.18654
G1 X101.837 Y103.736 E3.19862
G1 X102.724 Y102.724 E3.21071
G1 X103.736 Y101.837 E3.2228
G1 X104.855 Y101.089 E3.23489
G1 X106.062 Y100.494 E3.24698
G1 X107.337 Y100.061 E3.25907
G1 X108.657 Y99.798 E3.27116
G1 X110.025 Y99.712 E3.28347
G1 X111.343 Y99.798 E3.29533
G1 X112.663 Y100.061 E3.30742
G1 X113.938 Y100.494 E3.31951
G1 X115.166 Y101.103 E3.33182
G1 X116.264 Y101.837 E3.34369
G1 X117.276 Y102.724 E3.35578
G1 X118.163 Y103.736 E3.36787
G1 X118.897 Y104.834 E3.37973
G1 X119.506 Y106.062 E3.39204
G1 X119.939 Y107.337 E3.40413
G1 X120.202 Y108.657 E3.41622
G1 X120.29 Y110 E3.42831
G1 X120.202 Y111.343 E3.4404
G1 X119.944 Y112.639 E3.45226
G1 X119.506 Y113.938 E3.46457
G1 X118.911 Y115.145 E3.47666
G1 X118.163 Y116.264 E3.48875
G1 X117.276 Y117.276 E3.50084
G1 X116.264 Y118.163 E3.51293
G1 X115.145 Y118.911 E3.52502
G1 X113.938 Y119.507 E3.53711
G1 X112.663 Y119.939 E3.5492
G1 X111.343 Y120.202 E3.56128
G1 X110 Y120.29 E3.57337
G1 X108.657 Y120.202 E3.58546
G1 X107.337 Y119.939 E3.59755
G1 X106.062 Y119.507 E3.60964
G1 X104.834 Y118.897 E3.62195
G1 X103.736 Y118.163 E3.63382
G1 X102.724 Y117.276 E3.6459
G1 X101.837 Y116.264 E3.65799
G1 X101.089 Y115.145 E3.67008
G1 X100.494 Y113.938 E3.68217
G1 X100.061 Y112.663 E3.69426
G1 X99.809 Y111.397 E3.70585
G1 X100.115 Y111.095 F7800
G1 E1.70585 F2400
G92 E0
G1 X117.822 Y104.027 F7800
G1 E2 F2400
;TYPE:Solid infill
;WIDTH:0.220662
G1 F1800
G1 X116.895 Y103.101 E2.01181
G1 X115.938 Y102.261 E2.02328
G1 X115.453 Y101.937 E2.02854
G1 X118.063 Y104.547 E2.06179
G1 X118.434 Y105.103 E2.06782
G1 X118.527 Y105.29 E2.0697
G1 X114.71 Y101.473 E2.11834
G1 X114.157 Y101.199 E2.1239
G1 X118.801 Y105.843 E2.18309
G1 X119.045 Y106.365 E2.18829
G1 X113.635 Y100.955 E2.25724
G1 X113.213 Y100.812 E2.26126
G1 X119.188 Y106.787 E2.33742
G1 X119.332 Y107.209 E2.34143
G1 X112.791 Y100.668 E2.42479
G1 X112.396 Y100.552 E2.4285
G1 X119.448 Y107.604 E2.51836
G1 X119.517 Y107.952 E2.52156
G1 X112.048 Y100.483 E2.61674
G1 X111.701 Y100.414 E2.61994
G1 X119.586 Y108.299 E2.72044
G1 X119.655 Y108.647 E2.72363
G1 X111.353 Y100.345 E2.82945
G1 X111.043 Y100.314 E2.83225
G1 X119.686 Y108.957 E2.9424
G1 X119.706 Y109.255 E2.9451
G1 X110.745 Y100.294 E3.0593
G1 X110.447 Y100.275 E3.06199
G1 X119.725 Y109.553 E3.18025
G1 X119.745 Y109.852 E3.18294
G1 X110.148 Y100.255 E3.30524
G1 X109.871 Y100.257 E3.30774
G1 X119.746 Y110.131 E3.43359
G1 X119.729 Y110.393 E3.43595
G1 X109.609 Y100.273 E3.56492
G1 X109.347 Y100.29 E3.56729
G1 X119.712 Y110.654 E3.69938
G1 X119.694 Y110.916 E3.70174
G1 X109.085 Y100.307 E3.83696
G1 X108.823 Y100.323 E3.83933
G1 X119.677 Y111.178 E3.97766
G1 X119.642 Y111.421 E3.97988
G1 X108.579 Y100.358 E4.12086
G1 X108.347 Y100.405 E4.123
G1 X119.595 Y111.653 E4.26636
G1 X119.549 Y111.886 E4.2685
G1 X108.114 Y100.451 E4.41423
G1 X107.882 Y100.497 E4.41636
G1 X119.503 Y112.118 E4.56447
G1 X119.457 Y112.35 E4.56661
G1 X107.65 Y100.543 E4.71708
G1 X107.423 Y100.596 E4.71918
G1 X119.402 Y112.574 E4.87184
G1 X119.332 Y112.783 E4.87383
G1 X107.215 Y100.666 E5.02825
G1 X107.007 Y100.737 E5.03023
G1 X119.262 Y112.991 E5.18641
G1 X119.191 Y113.2 E5.18839
G1 X106.799 Y100.808 E5.34633
G1 X106.591 Y100.878 E5.34831
G1 X119.121 Y113.408 E5.508
G1 X119.051 Y113.617 E5.50998
G1 X106.383 Y100.949 E5.67143
