; generated by PrusaSlicer 2.5.0+win64 on 2022-12-30 at 11:34:58 UTC

; filament used [mm] = 279.36
; filament used [cm3] = 0.67
; total filament used [g] = 0.00
; total filament cost = 0.00
; estimated printing time (normal mode) = 16m 9s
; estimated printing time (silent mode) = 16m 18s

; external perimeters extrusion width = 0.26mm
; perimeters extrusion width = 0.26mm
; infill extrusion width = 0.26mm
; solid infill extrusion width = 0.26mm
; top infill extrusion width = 0.26mm
; first layer extrusion width = 0.36mm

M107
;TYPE:Custom
;PETG: (PLA 60/200)
M140 S60 ;Set Bed Temperature
M104 S210 ;Set Hotend Temperature
M190 S60 ;Wait for Bed Temperature
M109 S210 ;Wait for Hotend Temperature
M105 ;Report Temperatures
G28 ;home all axes
M413 S0 ;"Power Loss" OFF (avoid forming short stop-drops!)

G1 Z20 F5000 ; lift nozzle 20mm
G21 ; set units to millimeters
G90 ; use absolute coordinates
M82 ; use absolute distances for extrusion
G92 E0
; Filament gcode
M107
;LAYER_CHANGE
;Z:0.18
;HEIGHT:0.18
G1 Z.18 F7800
G1 E-2 F2400
G92 E0
G1 X81.248 Y80.41 F7800
G1 E2 F2400
;TYPE:Skirt/Brim
;WIDTH:0.36
G1 F1800
G1 X84.498 Y77.876 E2.09913
G1 X88.176 Y76.015 E2.19825
G1 X92.144 Y74.899 E2.29738
G1 X95.9 Y74.565 E2.38808
G1 X124.1 Y74.565 E3.06629
G1 X128.202 Y74.964 E3.16541
G1 X132.151 Y76.146 E3.26454
G1 X135.797 Y78.067 E3.36367
G1 X139.006 Y80.655 E3.46279
G1 X141.655 Y83.812 E3.56192
G1 X143.646 Y87.421 E3.66105
G1 X144.904 Y91.346 E3.76017
G1 X145.372 Y95.09 E3.85091
G1 X145.982 Y112.17 E4.26195
G1 X145.996 Y119.13 E4.42933
G1 X145.84 Y121.699 E4.49122
G1 X145.23 Y126.719 E4.61284
G1 X144.339 Y130.743 E4.71197
G1 X142.689 Y134.52 E4.81109
G1 X140.342 Y137.908 E4.91022
G1 X137.386 Y140.78 E5.00935
G1 X133.931 Y143.029 E5.10847
G1 X130.109 Y144.57 E5.2076
G1 X124.1 Y145.435 E5.3536
G1 X95.9 Y145.435 E6.03181
G1 X91.798 Y145.036 E6.13093
G1 X87.849 Y143.854 E6.23006
G1 X84.203 Y141.933 E6.32919
G1 X80.994 Y139.345 E6.42831
G1 X78.345 Y136.188 E6.52744
G1 X76.354 Y132.579 E6.62656
G1 X74.771 Y126.725 E6.77241
G1 X74.159 Y121.705 E6.89403
G1 X74.003 Y119.13 E6.95607
G1 X74.003 Y112.929 E7.1052
G1 X74.628 Y95.088 E7.53454
G1 X75.174 Y91.003 E7.63367
G1 X76.497 Y87.099 E7.73279
G1 X78.547 Y83.524 E7.83192
G1 X81.208 Y80.456 E7.9296
G1 X81.458 Y80.674 F7800
G1 F1800
G1 X81.559 Y80.558 E7.93331
G1 X84.802 Y78.064 E8.03169
G1 X88.467 Y76.248 E8.13006
G1 X92.415 Y75.178 E8.22843
G1 X95.9 Y74.886 E8.31255
G1 X124.1 Y74.886 E8.99076
G1 X128.171 Y75.285 E9.08913
G1 X132.087 Y76.467 E9.18751
G1 X135.699 Y78.387 E9.28588
G1 X138.869 Y80.971 E9.38425
G1 X141.477 Y84.122 E9.48263
G1 X143.424 Y87.72 E9.581
G1 X144.634 Y91.627 E9.67937
G1 X145.051 Y95.101 E9.76353
G1 X145.661 Y112.181 E10.17457
G1 X145.674 Y119.13 E10.34168
G1 X145.521 Y121.66 E10.40263
G1 X144.911 Y126.68 E10.52425
G1 X144.024 Y130.673 E10.62262
G1 X142.378 Y134.417 E10.721
G1 X140.036 Y137.771 E10.81937
G1 X137.088 Y140.606 E10.91775
G1 X133.645 Y142.815 E11.01612
G1 X129.839 Y144.313 E11.11449
G1 X124.1 Y145.114 E11.25385
G1 X95.9 Y145.114 E11.93206
G1 X91.829 Y144.715 E12.03043
G1 X87.913 Y143.533 E12.1288
G1 X84.301 Y141.613 E12.22718
G1 X81.131 Y139.029 E12.32555
G1 X78.523 Y135.878 E12.42392
G1 X76.576 Y132.28 E12.5223
G1 X75.09 Y126.686 E12.6615
G1 X74.478 Y121.666 E12.78312
G1 X74.324 Y119.13 E12.84423
G1 X74.324 Y112.929 E12.99336
G1 X74.949 Y95.1 E13.42242
G1 X75.494 Y91.046 E13.52079
G1 X76.815 Y87.175 E13.61916
G1 X78.863 Y83.634 E13.71754
G1 X81.418 Y80.719 E13.81076
G1 X81.666 Y80.939 F7800
G1 F1800
G1 X81.871 Y80.707 E13.8182
G1 X85.105 Y78.255 E13.91581
G1 X88.757 Y76.483 E14.01343
G1 X92.684 Y75.459 E14.11104
G1 X95.9 Y75.207 E14.18862
G1 X124.1 Y75.207 E14.86682
G1 X128.139 Y75.606 E14.96444
G1 X132.022 Y76.788 E15.06205
G1 X135.599 Y78.707 E15.15967
G1 X138.731 Y81.288 E15.25728
G1 X141.298 Y84.432 E15.3549
G1 X143.199 Y88.018 E15.45251
G1 X144.363 Y91.907 E15.55013
G1 X144.73 Y95.113 E15.62774
G1 X145.34 Y112.193 E16.03878
G1 X145.353 Y119.13 E16.20561
G1 X145.202 Y121.621 E16.26563
G1 X144.592 Y126.641 E16.38725
G1 X143.708 Y130.603 E16.48487
G1 X142.067 Y134.315 E16.58248
G1 X139.731 Y137.634 E16.6801
G1 X136.79 Y140.431 E16.77771
G1 X133.359 Y142.6 E16.87533
G1 X129.57 Y144.055 E16.97294
G1 X124.1 Y144.793 E17.10568
G1 X95.9 Y144.793 E17.78389
G1 X91.861 Y144.394 E17.88151
G1 X87.978 Y143.212 E17.97912
G1 X84.401 Y141.293 E18.07674
G1 X81.269 Y138.712 E18.17435
G1 X78.702 Y135.568 E18.27197
G1 X76.801 Y131.982 E18.36958
G1 X75.409 Y126.647 E18.50217
G1 X74.797 Y121.627 E18.62379
G1 X74.645 Y119.13 E18.68397
G1 X74.646 Y112.929 E18.8331
G1 X75.27 Y95.111 E19.26188
G1 X75.814 Y91.089 E19.35949
G1 X77.134 Y87.251 E19.45711
G1 X79.179 Y83.745 E19.55472
G1 X81.626 Y80.984 E19.64346
G1 X81.872 Y81.204 F7800
G1 F1800
G1 X82.182 Y80.857 E19.65464
G1 X85.408 Y78.447 E19.75149
G1 X89.046 Y76.719 E19.84834
G1 X92.953 Y75.743 E19.94519
G1 X95.9 Y75.529 E20.01626
G1 X124.1 Y75.529 E20.69447
G1 X128.107 Y75.928 E20.79132
G1 X131.957 Y77.109 E20.88817
G1 X135.498 Y79.026 E20.98502
G1 X138.592 Y81.604 E21.08187
G1 X141.117 Y84.742 E21.17872
G1 X142.973 Y88.316 E21.27557
G1 X144.088 Y92.185 E21.37242
G1 X144.408 Y95.124 E21.44353
G1 X145.019 Y112.204 E21.85457
G1 X145.032 Y119.13 E22.02113
G1 X144.883 Y121.582 E22.08021
G1 X144.273 Y126.602 E22.20183
G1 X143.393 Y130.532 E22.29868
G1 X141.756 Y134.211 E22.39553
G1 X139.425 Y137.495 E22.49238
G1 X136.493 Y140.255 E22.58923
G1 X133.074 Y142.383 E22.68608
G1 X129.302 Y143.794 E22.78293
G1 X124.1 Y144.471 E22.90909
G1 X95.9 Y144.471 E23.5873
G1 X91.893 Y144.072 E23.68415
G1 X88.043 Y142.891 E23.781
G1 X84.502 Y140.974 E23.87785
G1 X81.408 Y138.396 E23.9747
G1 X78.883 Y135.258 E24.07155
G1 X77.027 Y131.684 E24.1684
G1 X75.728 Y126.608 E24.29442
G1 X75.116 Y121.588 E24.41604
G1 X74.967 Y119.13 E24.47528
G1 X74.98 Y112.203 E24.64187
G1 X75.592 Y95.123 E25.05291
G1 X76.134 Y91.132 E25.14976
G1 X77.452 Y87.327 E25.24661
G1 X79.495 Y83.857 E25.34346
G1 X81.832 Y81.248 E25.42769
G1 E23.42769 F2400
G92 E0
G1 X96.111 Y118.384 F7800
G1 E2 F2400
;TYPE:Perimeter
;WIDTH:0.359999
G1 F1800
G1 X96.111 Y113.676 E2.11324
G1 X96.476 Y113.529 E2.12269
G1 X96.662 Y113.256 E2.13063
G1 X96.723 Y112.949 E2.13816
G1 X96.723 Y96.673 E2.52961
G1 X123.277 Y96.673 E3.16824
G1 X123.277 Y112.949 E3.55969
G1 X123.338 Y113.255 E3.56718
G1 X123.524 Y113.528 E3.57514
G1 X123.887 Y113.675 E3.58457
G1 X123.887 Y118.385 E3.69785
G1 X123.524 Y118.532 E3.70728
G1 X123.338 Y118.804 E3.71522
G1 X123.277 Y119.111 E3.72273
G1 X123.277 Y123.327 E3.82414
G1 X96.723 Y123.327 E4.46277
G1 X96.723 Y119.111 E4.56418
G1 X96.662 Y118.805 E4.57167
G1 X96.476 Y118.531 E4.57965
G1 X96.167 Y118.407 E4.58766
G1 X96.014 Y118.667 F7800
G1 F1800
G1 X95.919 Y118.629 E4.5901
G1 X95.79 Y118.629 E4.59322
G1 X95.79 Y113.431 E4.71821
G1 X95.919 Y113.431 E4.72133
G1 X96.253 Y113.297 E4.72998
G1 X96.335 Y113.193 E4.73318
G1 X96.401 Y112.949 E4.73924
G1 X96.401 Y96.351 E5.13842
G1 X123.599 Y96.351 E5.79251
G1 X123.599 Y112.949 E6.19169
G1 X123.61 Y113.054 E6.19422
G1 X123.746 Y113.297 E6.20092
G1 X124.081 Y113.431 E6.20959
G1 X124.209 Y113.431 E6.21267
G1 X124.209 Y118.629 E6.33766
G1 X124.081 Y118.629 E6.34074
G1 X123.746 Y118.763 E6.34941
G1 X123.664 Y118.868 E6.35261
G1 X123.599 Y119.111 E6.35866
G1 X123.599 Y123.649 E6.4678
G1 X96.401 Y123.649 E7.12189
G1 X96.401 Y119.111 E7.23102
G1 X96.383 Y118.977 E7.23426
G1 X96.253 Y118.763 E7.24029
G1 X96.069 Y118.689 E7.24505
G1 X95.919 Y118.95 F7800
;TYPE:External perimeter
G1 F1800
G1 X95.468 Y118.95 E7.2559
G1 X95.468 Y113.11 E7.39636
G1 X95.919 Y113.11 E7.4072
G1 X96.031 Y113.065 E7.41008
G1 X96.08 Y112.949 E7.41311
G1 X96.08 Y96.03 E7.82002
G1 X123.92 Y96.03 E8.48957
G1 X123.92 Y112.949 E8.89648
G1 X123.942 Y113.03 E8.8985
G1 X124.081 Y113.11 E8.90235
G1 X124.53 Y113.11 E8.91316
G1 X124.53 Y118.95 E9.05361
G1 X124.081 Y118.95 E9.06442
G1 X123.969 Y118.995 E9.06731
G1 X123.92 Y119.111 E9.07034
G1 X123.92 Y123.97 E9.1872
G1 X96.08 Y123.97 E9.85675
G1 X96.08 Y119.111 E9.97362
G1 X96.058 Y119.03 E9.97564
G1 X95.971 Y118.98 E9.97804
G1 X95.816 Y118.564 F7800
G1 E7.97804 F2400
G92 E0
G1 X123.181 Y97.421 F7800
G1 E2 F2400
;TYPE:Solid infill
;WIDTH:0.361016
G1 F1800
G1 X122.674 Y96.914 E2.01731
G1 X122.218 Y96.914 E2.02831
G1 X123.036 Y97.732 E2.05623
G1 X123.036 Y98.188 E2.06723
G1 X121.762 Y96.914 E2.11071
G1 X121.306 Y96.914 E2.12171
G1 X123.036 Y98.644 E2.18075
G1 X123.036 Y99.1 E2.19175
G1 X120.85 Y96.914 E2.26635
G1 X120.394 Y96.914 E2.27735
G1 X123.036 Y99.556 E2.3675
G1 X123.036 Y100.012 E2.3785
G1 X119.938 Y96.914 E2.4842
G1 X119.482 Y96.914 E2.4952
G1 X123.036 Y100.468 E2.61647
G1 X123.036 Y100.924 E2.62747
G1 X119.026 Y96.914 E2.76428
G1 X118.57 Y96.914 E2.77528
G1 X123.036 Y101.38 E2.92766
G1 X123.036 Y101.836 E2.93866
G1 X118.114 Y96.914 E3.10659
G1 X117.658 Y96.914 E3.11759
G1 X123.036 Y102.292 E3.30107
G1 X123.036 Y102.747 E3.31207
G1 X117.203 Y96.914 E3.51111
G1 X116.747 Y96.914 E3.52211
G1 X123.036 Y103.203 E3.73671
G1 X123.036 Y103.659 E3.74771
G1 X116.291 Y96.914 E3.97786
G1 X115.835 Y96.914 E3.98886
G1 X123.036 Y104.115 E4.23457
G1 X123.036 Y104.571 E4.24557
G1 X115.379 Y96.914 E4.50684
G1 X114.923 Y96.914 E4.51784
G1 X123.036 Y105.027 E4.79466
G1 X123.036 Y105.483 E4.80566
G1 X114.467 Y96.914 E5.09803
G1 X114.011 Y96.914 E5.10903
G1 X123.036 Y105.939 E5.41697
G1 X123.036 Y106.395 E5.42797
G1 X113.555 Y96.914 E5.75146
G1 X113.099 Y96.914 E5.76246
G1 X123.036 Y106.851 E6.1015
G1 X123.036 Y107.307 E6.1125
G1 X112.643 Y96.914 E6.4671
G1 X112.187 Y96.914 E6.4781
G1 X123.036 Y107.763 E6.84826
G1 X123.036 Y108.219 E6.85926
G1 X111.731 Y96.914 E7.24497
G1 X111.276 Y96.914 E7.25597
G1 X123.036 Y108.674 E7.65723
G1 X123.036 Y109.13 E7.66823
G1 X110.82 Y96.914 E8.08506
G1 X110.364 Y96.914 E8.09606
G1 X123.036 Y109.586 E8.52844
G1 X123.036 Y110.042 E8.53944
G1 X109.908 Y96.914 E8.98737
G1 X109.452 Y96.914 E8.99837
G1 X123.036 Y110.498 E9.46186
G1 X123.036 Y110.954 E9.47286
G1 X108.996 Y96.914 E9.95191
G1 X108.54 Y96.914 E9.96291
G1 X123.036 Y111.41 E10.45751
G1 X123.036 Y111.866 E10.46851
G1 X108.084 Y96.914 E10.97867
G1 X107.628 Y96.914 E10.98967
G1 X123.036 Y112.322 E11.51539
G1 X123.036 Y112.778 E11.52639
G1 X107.172 Y96.914 E12.06766
G1 X106.716 Y96.914 E12.07866
G1 X123.646 Y113.844 E12.6563
G1 X123.646 Y114.3 E12.6673
G1 X106.26 Y96.914 E13.26051
G1 X105.804 Y96.914 E13.27151
G1 X123.646 Y114.756 E13.88027
G1 X123.646 Y115.212 E13.89127
G1 X105.348 Y96.914 E14.51558
G1 X104.893 Y96.914 E14.52658
G1 X123.646 Y115.668 E15.16645
G1 X123.646 Y116.124 E15.17745
G1 X104.437 Y96.914 E15.83288
G1 X103.981 Y96.914 E15.84388
G1 X123.646 Y116.58 E16.51486
G1 X123.646 Y117.035 E16.52586
G1 X103.525 Y96.914 E17.2124
G1 X103.069 Y96.914 E17.2234
G1 X123.646 Y117.491 E17.92549
G1 X123.646 Y117.947 E17.93649
G1 X102.613 Y96.914 E18.65414
G1 X102.157 Y96.914 E18.66514
G1 X123.526 Y118.283 E19.39425
G1 X123.362 Y118.349 E19.39852
G1 X123.263 Y118.476 E19.4024
G1 X101.701 Y96.914 E20.13808
G1 X101.245 Y96.914 E20.14908
G1 X123.099 Y118.768 E20.89472
G1 X123.047 Y118.954 E20.89939
G1 X123.047 Y119.171 E20.90463
G1 X100.789 Y96.914 E21.66404
G1 X100.333 Y96.914 E21.67504
G1 X123.046 Y119.626 E22.44996
G1 X123.044 Y120.081 E22.46093
G1 X99.877 Y96.914 E23.25137
G1 X99.421 Y96.914 E23.26237
G1 X123.043 Y120.535 E24.06833
G1 X123.042 Y120.99 E24.0793
G1 X98.966 Y96.914 E24.90077
G1 X98.51 Y96.914 E24.91177
G1 X123.041 Y121.445 E25.74876
G1 X123.04 Y121.9 E25.75973
G1 X98.054 Y96.914 E26.61223
G1 X97.598 Y96.914 E26.62323
G1 X123.038 Y122.354 E27.49125
G1 X123.037 Y122.809 E27.50222
G1 X97.142 Y96.914 E28.38575
G1 X96.964 Y96.914 E28.39005
G1 X96.964 Y97.192 E28.39675
G1 X122.858 Y123.086 E29.28026
G1 X122.402 Y123.086 E29.29126
G1 X96.964 Y97.648 E30.15921
G1 X96.964 Y98.103 E30.17021
G1 X121.947 Y123.086 E31.0226
G1 X121.491 Y123.086 E31.0336
G1 X96.964 Y98.559 E31.87044
G1 X96.964 Y99.015 E31.88144
G1 X121.035 Y123.086 E32.70272
G1 X120.579 Y123.086 E32.71372
G1 X96.964 Y99.471 E33.51945
G1 X96.964 Y99.927 E33.53045
G1 X120.123 Y123.086 E34.32062
G1 X119.667 Y123.086 E34.33162
G1 X96.964 Y100.383 E35.10624
G1 X96.964 Y100.839 E35.11724
G1 X119.211 Y123.086 E35.8763
G1 X118.755 Y123.086 E35.8873
G1 X96.964 Y101.295 E36.6308
G1 X96.964 Y101.751 E36.6418
G1 X118.299 Y123.086 E37.36975
G1 X117.843 Y123.086 E37.38075
G1 X96.964 Y102.207 E38.09314
G1 X96.964 Y102.663 E38.10414
G1 X117.387 Y123.086 E38.80098
G1 X116.931 Y123.086 E38.81198
G1 X96.964 Y103.119 E39.49326
G1 X96.964 Y103.575 E39.50426
G1 X116.475 Y123.086 E40.16998
G1 X116.019 Y123.086 E40.18098
G1 X96.964 Y104.031 E40.83115
G1 X96.964 Y104.486 E40.84215
G1 X115.564 Y123.086 E41.47676
G1 X115.108 Y123.086 E41.48776
G1 X96.964 Y104.942 E42.10682
G1 X96.964 Y105.398 E42.11782
G1 X114.652 Y123.086 E42.72132
G1 X114.196 Y123.086 E42.73232
G1 X96.964 Y105.854 E43.32027
G1 X96.964 Y106.31 E43.33127
G1 X113.74 Y123.086 E43.90365
G1 X113.284 Y123.086 E43.91465
G1 X96.964 Y106.766 E44.47149
G1 X96.964 Y107.222 E44.48249
G1 X112.828 Y123.086 E45.02377
G1 X112.372 Y123.086 E45.03477
G1 X96.964 Y107.678 E45.56049
G1 X96.964 Y108.134 E45.57149
G1 X111.916 Y123.086 E46.08165
G1 X111.46 Y123.086 E46.09265
G1 X96.964 Y108.59 E46.58726
G1 X96.964 Y109.046 E46.59826
G1 X111.004 Y123.086 E47.07732
G1 X110.548 Y123.086 E47.08832
G1 X96.964 Y109.502 E47.55181
G1 X96.964 Y109.958 E47.56281
G1 X110.092 Y123.086 E48.01076
G1 X109.637 Y123.086 E48.02176
G1 X96.964 Y110.413 E48.45414
G1 X96.964 Y110.869 E48.46514
G1 X109.181 Y123.086 E48.88197
G1 X108.725 Y123.086 E48.89297
G1 X96.964 Y111.325 E49.29425
G1 X96.964 Y111.781 E49.30525
G1 X108.269 Y123.086 E49.69097
G1 X107.813 Y123.086 E49.70197
G1 X96.964 Y112.237 E50.07213
G1 X96.964 Y112.693 E50.08313
G1 X107.357 Y123.086 E50.43774
G1 X106.901 Y123.086 E50.44874
G1 X96.938 Y113.123 E50.78866
G1 X96.918 Y113.259 E50.79196
G1 X96.826 Y113.467 E50.79745
G1 X106.445 Y123.086 E51.12566
G1 X105.989 Y123.086 E51.13666
G1 X96.621 Y113.718 E51.4563
G1 X96.352 Y113.826 E51.46328
G1 X96.352 Y113.905 E51.4652
G1 X105.533 Y123.086 E51.77845
G1 X105.077 Y123.086 E51.78945
G1 X96.352 Y114.361 E52.08714
G1 X96.352 Y114.817 E52.09814
G1 X104.621 Y123.086 E52.38028
G1 X104.165 Y123.086 E52.39128
G1 X96.352 Y115.273 E52.65787
G1 X96.352 Y115.729 E52.66887
G1 X103.71 Y123.086 E52.9199
G1 X103.254 Y123.086 E52.9309
G1 X96.352 Y116.185 E53.16637
G1 X96.352 Y116.641 E53.17737
G1 X102.798 Y123.086 E53.39729
G1 X102.342 Y123.086 E53.40829
G1 X96.352 Y117.097 E53.61266
G1 X96.352 Y117.552 E53.62366
G1 X101.886 Y123.086 E53.81247
G1 X101.43 Y123.086 E53.82347
G1 X96.352 Y118.008 E53.99672
G1 X96.352 Y118.234 E54.00217
G1 X96.637 Y118.348 E54.00957
G1 X96.82 Y118.581 E54.01671
G1 X96.886 Y118.715 E54.02032
G1 X96.953 Y118.954 E54.02631
G1 X96.953 Y119.065 E54.02899
G1 X100.974 Y123.086 E54.16618
G1 X100.518 Y123.086 E54.17718
G1 X96.954 Y119.522 E54.29878
G1 X96.955 Y119.98 E54.3098
G1 X100.062 Y123.086 E54.4158
G1 X99.606 Y123.086 E54.4268
G1 X96.957 Y120.437 E54.5172
G1 X96.958 Y120.894 E54.52823
G1 X99.15 Y123.086 E54.60304
G1 X98.694 Y123.086 E54.61404
G1 X96.959 Y121.351 E54.67325
G1 X96.96 Y121.808 E54.68428
G1 X98.238 Y123.086 E54.72789
G1 X97.782 Y123.086 E54.73889
G1 X96.961 Y122.265 E54.7669
G1 X96.963 Y122.722 E54.77793
G1 X97.471 Y123.231 E54.79528
;LAYER_CHANGE
;Z:0.31
;HEIGHT:0.13
G1 Z.31 F7800
M140 S60 ; set bed temperature
G1 E52.79528 F2400
G92 E0
G1 X96.046 Y118.578 F7800
G1 E2 F2400
;TYPE:Perimeter
;WIDTH:0.259999
G1 F4200
G1 X95.914 Y118.536 E2.00174
G1 X95.696 Y118.536 E2.00447
G1 X95.696 Y113.524 E2.06734
G1 X95.914 Y113.524 E2.07007
G1 X96.254 Y113.414 E2.07455
G1 X96.421 Y113.225 E2.07772
G1 X96.494 Y112.944 E2.08137
G1 X96.494 Y96.444 E2.28835
G1 X123.506 Y96.444 E2.6272
G1 X123.506 Y112.944 E2.83418
G1 X123.549 Y113.165 E2.837
G1 X123.746 Y113.414 E2.84099
G1 X124.086 Y113.524 E2.84547
G1 X124.304 Y113.524 E2.8482
G1 X124.304 Y118.536 E2.91107
G1 X124.086 Y118.536 E2.9138
G1 X123.746 Y118.646 E2.91828
G1 X123.579 Y118.835 E2.92145
