; generated by PrusaSlicer 2.5.0+win64 on 2023-02-14 at 14:59:28 UTC

; 

; external perimeters extrusion width = 0.26mm
; perimeters extrusion width = 0.26mm
; infill extrusion width = 0.26mm
; solid infill extrusion width = 0.26mm
; top infill extrusion width = 0.26mm
; first layer extrusion width = 0.36mm

M107
;TYPE:Custom
;PETG: (PLA 60/200)
M140 S70 ;Set Bed Temperature
M104 S230 ;Set Hotend Temperature
M190 S70 ;Wait for Bed Temperature
M109 S230 ;Wait for Hotend Temperature
M105 ;Report Temperatures
G28 ;home all axes
M413 S0 ;"Power Loss" OFF (avoid forming short stop-drops!)

G1 Z20 F5000 lift nozzle 20mm
G21 ; set units to millimeters
G90 ; use absolute coordinates
M82 ; use absolute distances for extrusion
G92 E0
Filament gcode
M107
;LAYER_CHANGE
;Z:0.18
;HEIGHT:0.18
G1 Z.18 F7800
G1 E-2 F2400
G92 E0
G1 X82.523 Y81.573 F7800
G1 E2 F2400
;TYPE:Skirt/Brim
;WIDTH:0.36
G1 F1800
G1 X84.796 Y79.601 E2.07238
G1 X86.981 Y78.089 E2.13628
G1 X87.792 Y77.612 E2.15891
G1 X90.888 Y76.126 E2.2415
G1 X93.754 Y75.174 E2.31412
G1 X94.687 Y74.936 E2.33729
G1 X99.956 Y74.274 E2.465
G1 X120.054 Y74.279 E2.94836
G1 X125.235 Y74.92 E3.07391
G1 X126.166 Y75.154 E3.09701
G1 X129.748 Y76.391 E3.18814
G1 X133.017 Y78.089 E3.27673
G1 X135.521 Y79.851 E3.35037
G1 X137.273 Y81.382 E3.40631
G1 X139.031 Y83.194 E3.46704
G1 X140.655 Y85.158 E3.52833
G1 X141.89 Y86.889 E3.57946
G1 X142.653 Y88.144 E3.61478
G1 X143.432 Y89.642 E3.65541
G1 X143.874 Y90.579 E3.68032
G1 X145.627 Y96.236 E3.82275
G1 X145.964 Y100.032 E3.91439
G1 X145.957 Y119.942 E4.39324
G1 X145.101 Y125.912 E4.53828
G1 X144.022 Y129.04 E4.61786
G1 X143.026 Y131.187 E4.67478
G1 X141.488 Y133.776 E4.74721
G1 X139.561 Y136.381 E4.82514
G1 X138.005 Y138.045 E4.87991
G1 X136.741 Y139.241 E4.92177
G1 X135.094 Y140.582 E4.97285
G1 X132.887 Y142.069 E5.03686
G1 X131.723 Y142.728 E5.06903
G1 X128.525 Y144.149 E5.1532
G1 X125.415 Y145.062 E5.23115
G1 X124.324 Y145.288 E5.25793
G1 X120.049 Y145.722 E5.36127
G1 X99.949 Y145.722 E5.84467
G1 X95.674 Y145.288 E5.94803
G1 X94.683 Y145.083 E5.97236
G1 X91.46 Y144.138 E6.05313
G1 X88.4 Y142.792 E6.13354
G1 X87.451 Y142.271 E6.15957
G1 X85.026 Y140.673 E6.22941
G1 X83.061 Y139.065 E6.29048
G1 X81.266 Y137.295 E6.35111
G1 X80.352 Y136.28 E6.38396
G1 X78.511 Y133.778 E6.45866
G1 X76.988 Y131.216 E6.53035
G1 X76.17 Y129.51 E6.57584
G1 X75.601 Y128.053 E6.61347
G1 X74.897 Y125.912 E6.66766
G1 X74.041 Y119.942 E6.8127
G1 X74.035 Y100.032 E7.29156
G1 X74.323 Y96.517 E7.37637
G1 X76.063 Y90.72 E7.52194
G1 X77.378 Y88.088 E7.59269
G1 X77.981 Y87.087 E7.6208
G1 X79.275 Y85.251 E7.67481
G1 X80.968 Y83.193 E7.73891
G1 X82.481 Y81.616 E7.79146
G1 X82.713 Y81.839 F7800
G1 F1800
G1 X84.995 Y79.854 E7.86421
G1 X87.147 Y78.364 E7.92715
G1 X87.953 Y77.89 E7.94964
G1 X91.011 Y76.423 E8.0312
G1 X93.833 Y75.485 E8.10273
G1 X94.767 Y75.247 E8.12589
G1 X99.956 Y74.596 E8.25168
G1 X120.054 Y74.6 E8.73504
G1 X125.157 Y75.232 E8.85869
G1 X126.088 Y75.466 E8.88179
G1 X129.624 Y76.688 E8.97176
G1 X132.851 Y78.365 E9.05922
G1 X135.323 Y80.104 E9.13193
G1 X137.048 Y81.612 E9.18702
G1 X138.794 Y83.411 E9.24731
G1 X140.403 Y85.358 E9.30805
G1 X141.619 Y87.062 E9.35842
G1 X142.374 Y88.303 E9.39334
G1 X143.583 Y90.716 E9.45826
G1 X145.31 Y96.288 E9.59853
G1 X145.643 Y100.032 E9.68893
G1 X145.636 Y119.942 E10.16778
G1 X144.793 Y125.822 E10.31063
G1 X143.725 Y128.918 E10.3894
G1 X142.74 Y131.039 E10.44563
G1 X141.216 Y133.605 E10.51742
G1 X139.316 Y136.172 E10.59423
G1 X137.779 Y137.817 E10.64837
G1 X136.527 Y139.002 E10.68983
G1 X134.898 Y140.327 E10.74032
G1 X132.724 Y141.792 E10.80337
G1 X131.569 Y142.446 E10.83529
G1 X128.411 Y143.849 E10.9184
G1 X125.348 Y144.747 E10.99518
G1 X124.26 Y144.973 E11.0219
G1 X120.049 Y145.4 E11.12368
G1 X99.949 Y145.401 E11.60709
G1 X95.738 Y144.973 E11.70889
G1 X94.75 Y144.769 E11.73316
G1 X91.566 Y143.835 E11.81295
G1 X88.548 Y142.507 E11.89226
G1 X87.609 Y141.991 E11.91802
G1 X85.221 Y140.417 E11.9868
G1 X83.275 Y138.826 E12.04726
G1 X81.497 Y137.073 E12.1073
G1 X80.596 Y136.072 E12.1397
G1 X78.783 Y133.607 E12.21328
G1 X77.273 Y131.068 E12.28434
G1 X76.465 Y129.382 E12.32929
G1 X75.206 Y125.822 E12.42011
G1 X74.362 Y119.942 E12.56296
G1 X74.356 Y100.031 E13.04182
G1 X74.641 Y96.565 E13.12548
G1 X76.355 Y90.855 E13.26885
G1 X77.658 Y88.246 E13.33898
G1 X78.253 Y87.258 E13.36673
G1 X79.527 Y85.45 E13.41992
G1 X81.205 Y83.41 E13.48345
G1 X82.672 Y81.882 E13.53437
G1 X82.903 Y82.105 F7800
G1 F1800
G1 X85.194 Y80.106 E13.60749
G1 X87.313 Y78.639 E13.66947
G1 X88.115 Y78.168 E13.69182
G1 X91.134 Y76.72 E13.77235
G1 X93.913 Y75.797 E13.84278
G1 X94.846 Y75.558 E13.86595
G1 X99.956 Y74.917 E13.9898
G1 X120.054 Y74.922 E14.47316
G1 X125.079 Y75.544 E14.59493
G1 X126.01 Y75.778 E14.61802
G1 X129.5 Y76.984 E14.70683
G1 X132.685 Y78.64 E14.79316
G1 X135.125 Y80.357 E14.86493
G1 X136.824 Y81.842 E14.91918
G1 X138.557 Y83.628 E14.97903
G1 X140.151 Y85.558 E15.03923
G1 X141.349 Y87.236 E15.08882
G1 X142.095 Y88.463 E15.12336
G1 X143.292 Y90.853 E15.18766
G1 X144.993 Y96.339 E15.32578
G1 X145.321 Y100.032 E15.41494
G1 X145.315 Y119.942 E15.89379
G1 X144.484 Y125.732 E16.03445
G1 X143.428 Y128.796 E16.1124
G1 X142.455 Y130.89 E16.16793
G1 X140.944 Y133.434 E16.2391
G1 X139.072 Y135.964 E16.31478
G1 X137.552 Y137.589 E16.3683
G1 X136.312 Y138.762 E16.40934
G1 X134.703 Y140.072 E16.45926
G1 X132.562 Y141.515 E16.52135
G1 X131.416 Y142.164 E16.55302
G1 X128.297 Y143.548 E16.63508
G1 X125.281 Y144.433 E16.71067
G1 X124.195 Y144.658 E16.73734
G1 X120.049 Y145.079 E16.83756
G1 X99.949 Y145.079 E17.32097
G1 X95.803 Y144.658 E17.42121
G1 X94.817 Y144.454 E17.44543
G1 X91.673 Y143.531 E17.52423
G1 X88.696 Y142.221 E17.60244
G1 X87.767 Y141.711 E17.62792
G1 X85.416 Y140.161 E17.69566
G1 X83.489 Y138.586 E17.7555
G1 X81.729 Y136.85 E17.81496
G1 X80.84 Y135.863 E17.84692
G1 X79.055 Y133.436 E17.91937
G1 X77.558 Y130.919 E17.98979
G1 X76.76 Y129.254 E18.0342
G1 X75.514 Y125.732 E18.12406
G1 X74.684 Y119.942 E18.26472
G1 X74.677 Y100.031 E18.74357
G1 X74.958 Y96.612 E18.82608
G1 X76.647 Y90.99 E18.96725
G1 X77.937 Y88.404 E19.03676
G1 X78.525 Y87.429 E19.06416
G1 X79.78 Y85.648 E19.11653
G1 X81.443 Y83.627 E19.17949
G1 X82.862 Y82.148 E19.22878
G1 X83.094 Y82.37 F7800
G1 F1800
G1 X83.203 Y82.257 E19.23257
G1 X85.393 Y80.358 E19.30229
G1 X87.479 Y78.915 E19.3633
G1 X88.276 Y78.446 E19.38552
G1 X91.257 Y77.017 E19.46502
G1 X93.992 Y76.108 E19.53435
G1 X94.925 Y75.87 E19.55752
G1 X99.956 Y75.238 E19.67944
G1 X120.054 Y75.243 E20.1628
G1 X125 Y75.855 E20.28267
G1 X125.932 Y76.089 E20.30576
G1 X129.376 Y77.28 E20.39341
G1 X132.519 Y78.915 E20.47861
G1 X134.927 Y80.611 E20.54945
G1 X136.599 Y82.072 E20.60286
G1 X138.319 Y83.845 E20.66227
G1 X139.899 Y85.757 E20.72191
G1 X141.078 Y87.409 E20.77073
G1 X141.816 Y88.623 E20.80488
G1 X143.002 Y90.99 E20.86857
G1 X144.676 Y96.391 E21.00454
G1 X145 Y100.031 E21.09245
G1 X144.993 Y119.942 E21.5713
G1 X144.176 Y125.641 E21.70977
G1 X143.13 Y128.674 E21.78692
G1 X142.17 Y130.742 E21.84175
G1 X140.672 Y133.263 E21.91229
G1 X138.828 Y135.755 E21.98684
G1 X137.325 Y137.361 E22.03973
G1 X136.098 Y138.523 E22.08037
G1 X134.507 Y139.818 E22.12972
G1 X132.399 Y141.237 E22.19083
G1 X131.262 Y141.881 E22.22225
G1 X128.184 Y143.247 E22.30326
G1 X125.214 Y144.119 E22.37768
G1 X124.131 Y144.344 E22.4043
G1 X120.049 Y144.758 E22.50296
G1 X99.949 Y144.758 E22.98636
G1 X95.867 Y144.344 E23.08504
G1 X94.883 Y144.14 E23.1092
G1 X91.779 Y143.228 E23.18702
G1 X88.844 Y141.936 E23.26413
G1 X87.925 Y141.432 E23.28934
G1 X85.611 Y139.906 E23.35602
G1 X83.704 Y138.347 E23.41525
G1 X81.961 Y136.628 E23.47413
G1 X81.084 Y135.654 E23.50564
G1 X79.328 Y133.265 E23.57696
G1 X77.843 Y130.771 E23.64676
G1 X77.055 Y129.126 E23.69062
G1 X75.823 Y125.641 E23.77952
G1 X75.005 Y119.942 E23.91799
G1 X74.999 Y100.031 E24.39684
G1 X75.276 Y96.66 E24.47819
G1 X76.938 Y91.126 E24.61717
G1 X78.217 Y88.563 E24.68605
G1 X78.797 Y87.6 E24.71309
G1 X80.032 Y85.847 E24.76466
G1 X81.68 Y83.844 E24.82704
G1 X83.052 Y82.414 E24.8747
G1 E22.8747 F2400
G92 E0
G1 X120.744 Y120.705 F7800
G1 E2 F2400
;TYPE:Perimeter
;WIDTH:0.359999
G1 F1800
G1 X120.611 Y120.573 E2.0045
G1 X122.508 Y120.573 E2.05012
G1 X123.589 Y120.552 E2.0761
G1 X123.4 Y121 E2.0878
G1 X122.803 Y121.953 E2.11483
G1 X122.184 Y122.598 E2.13635
G1 X121.765 Y122.933 E2.14925
G1 X121.226 Y123.27 E2.16453
;WIDTH:0.402905
G1 X120.992 Y123.337 E2.17116
;WIDTH:0.44581
G1 X120.758 Y123.404 E2.17858
;WIDTH:0.486229
G1 X120.674 Y123.401 E2.18141
;WIDTH:0.526648
G1 X120.589 Y123.399 E2.1845
;WIDTH:0.567066
G1 X120.505 Y123.396 E2.18784
G1 X120.559 Y123.343 E2.19084
;WIDTH:0.526648
G1 X120.614 Y123.29 E2.19362
;WIDTH:0.486229
G1 X120.668 Y123.237 E2.19616
;WIDTH:0.44581
G1 X120.774 Y123.084 E2.20184
;WIDTH:0.402905
G1 X120.879 Y122.93 E2.20693
;WIDTH:0.359999
G1 X120.973 Y122.553 E2.21627
G1 X120.973 Y120.934 E2.25519
G1 X120.786 Y120.747 E2.26156
G1 E.26156 F2400
G92 E0
G1 X96.426 Y99.358 F7800
G1 E2 F2400
G1 F1800
G1 X96.682 Y98.881 E2.01301
G1 X97.094 Y98.416 E2.02795
G1 X97.38 Y98.008 E2.03993
G1 X97.727 Y97.632 E2.05224
G1 X98.375 Y97.049 E2.0732
G1 X98.759 Y96.81 E2.08409
G1 X99.279 Y96.581 E2.09774
G1 X100.055 Y96.383 E2.117
G1 X119.947 Y96.387 E2.59543
G1 X120.621 Y96.556 E2.61212
G1 X121.074 Y96.728 E2.62377
G1 X121.479 Y96.95 E2.63489
G1 X121.866 Y97.241 E2.64653
G1 X122.271 Y97.633 E2.66009
G1 X122.619 Y98.008 E2.67239
G1 X122.906 Y98.418 E2.68444
G1 X123.318 Y98.888 E2.69945
G1 X123.571 Y99.359 E2.71231
G1 X123.519 Y99.327 E2.71378
G1 X96.655 Y99.327 E3.35985
G1 X96.486 Y99.35 E3.36396
G1 X95.916 Y100.039 F7800
;WIDTH:0.53834
G1 F1800
G1 X95.912 Y99.92 E3.36841
;WIDTH:0.490223
G1 X95.909 Y99.801 E3.37243
;WIDTH:0.442105
G1 X96.038 Y99.478 E3.38293
;WIDTH:0.401052
G1 X96.166 Y99.155 E3.39236
;WIDTH:0.359999
G1 X96.422 Y98.691 E3.40511
G1 X96.853 Y98.203 E3.42076
G1 X97.076 Y97.863 E3.43054
G1 X97.865 Y97.041 E3.45794
G1 X98.262 Y96.729 E3.4701
G1 X98.696 Y96.474 E3.48218
G1 X99.177 Y96.275 E3.49471
G1 X100.014 Y96.061 E3.51549
G1 X119.987 Y96.066 E3.99584
G1 X120.823 Y96.275 E4.01656
G1 X121.303 Y96.475 E4.02906
G1 X121.736 Y96.729 E4.04114
G1 X122.133 Y97.041 E4.05329
G1 X122.855 Y97.791 E4.07831
G1 X123.146 Y98.205 E4.09049
G1 X123.564 Y98.673 E4.10558
G1 X123.832 Y99.158 E4.1189
;WIDTH:0.402544
G1 X123.873 Y99.297 E4.12285
;WIDTH:0.445089
G1 X123.914 Y99.436 E4.12728
;WIDTH:0.487634
G1 X123.956 Y99.576 E4.13216
;WIDTH:0.530179
G1 X123.997 Y99.715 E4.1375
;WIDTH:0.572724
G1 X124.038 Y99.854 E4.14331
G1 X123.934 Y99.813 E4.14778
;WIDTH:0.530179
G1 X123.83 Y99.772 E4.15189
;WIDTH:0.487634
G1 X123.726 Y99.731 E4.15565
;WIDTH:0.445089
G1 X123.623 Y99.69 E4.15905
;WIDTH:0.402544
G1 X123.519 Y99.649 E4.16209
;WIDTH:0.359999
G1 X96.48 Y99.649 E4.81237
;WIDTH:0.401052
G1 X96.255 Y99.757 E4.81914
;WIDTH:0.442105
G1 X96.029 Y99.865 E4.82669
;WIDTH:0.490223
G1 X95.973 Y99.952 E4.8302
;WIDTH:0.53834
G1 X95.949 Y99.989 E4.83184
G1 E2.83184 F2400
G92 E0
G1 X96.41 Y120.552 F7800
G1 E2 F2400
;WIDTH:0.359999
G1 F1800
G1 X96.48 Y120.573 E2.00177
G1 X116.622 Y120.573 E2.48617
G1 X116.318 Y120.934 E2.49753
G1 X116.318 Y122.553 E2.53646
G1 X116.478 Y123.035 E2.54868
;WIDTH:0.402858
G1 X116.586 Y123.11 E2.55224
;WIDTH:0.445716
G1 X116.693 Y123.185 E2.55623
;WIDTH:0.488575
G1 X116.8 Y123.26 E2.56063
;WIDTH:0.531433
G1 X116.907 Y123.335 E2.56545
;WIDTH:0.574292
G1 X117.014 Y123.41 E2.57069
;WIDTH:0.61715
G1 X117.121 Y123.485 E2.57635
G1 X116.966 Y123.506 E2.58314
;WIDTH:0.574292
G1 X116.811 Y123.528 E2.58943
;WIDTH:0.531433
G1 X116.655 Y123.549 E2.59521
;WIDTH:0.488575
G1 X116.5 Y123.571 E2.60049
;WIDTH:0.445716
G1 X116.345 Y123.592 E2.60527
;WIDTH:0.402858
G1 X116.189 Y123.614 E2.60954
;WIDTH:0.359999
G1 X100.034 Y123.614 E2.99808
G1 X99.235 Y123.448 E3.01769
G1 X98.696 Y123.226 E3.03172
G1 X98.259 Y122.963 E3.04398
G1 X97.829 Y122.613 E3.0573
G1 X97.266 Y122.028 E3.07684
G1 X96.599 Y121 E3.10631
G1 X96.433 Y120.607 E3.11657
G1 X96.001 Y120.062 F7800
;WIDTH:0.520678
G1 F1800
G1 X96.078 Y120.119 E3.12003
;WIDTH:0.478481
G1 X96.158 Y120.178 E3.12327
;WIDTH:0.436284
G1 X96.319 Y120.214 E3.12819
;WIDTH:0.398142
G1 X96.48 Y120.251 E3.13264
;WIDTH:0.359999
G1 X115.956 Y120.251 E3.60104
;WIDTH:0.401977
G1 X116.169 Y120.272 E3.60685
;WIDTH:0.443954
G1 X116.382 Y120.293 E3.61333
;WIDTH:0.485932
G1 X116.594 Y120.314 E3.62049
;WIDTH:0.527909
G1 X116.807 Y120.335 E3.62832
;WIDTH:0.569886
G1 X117.02 Y120.356 E3.63682
G1 X116.944 Y120.472 E3.64232
;WIDTH:0.527909
G1 X116.868 Y120.587 E3.64739
;WIDTH:0.485932
G1 X116.791 Y120.703 E3.65202
;WIDTH:0.443954
G1 X116.715 Y120.819 E3.65622
;WIDTH:0.401977
G1 X116.639 Y120.934 E3.65999
;WIDTH:0.359999
G1 X116.639 Y122.553 E3.69892
G1 X116.736 Y122.842 E3.70625
G1 X117.121 Y123.035 E3.71662
G1 X119.952 Y123.035 E3.78469
G1 X120.268 Y123.025 E3.79229
G1 X120.454 Y122.943 E3.79718
G1 X120.596 Y122.779 E3.80239
G1 X120.652 Y122.553 E3.808
G1 X120.652 Y120.934 E3.84692
;WIDTH:0.400211
G1 X120.555 Y120.818 E3.85102
;WIDTH:0.440422
G1 X120.459 Y120.701 E3.85556
;WIDTH:0.480634
G1 X120.363 Y120.585 E3.86057
;WIDTH:0.520845
G1 X120.266 Y120.468 E3.86602
;WIDTH:0.561056
G1 X120.17 Y120.352 E3.87194
G1 X120.403 Y120.332 E3.88108
;WIDTH:0.520845
G1 X120.636 Y120.312 E3.88952
;WIDTH:0.480634
G1 X120.869 Y120.291 E3.89726
;WIDTH:0.440422
G1 X121.102 Y120.271 E3.90429
;WIDTH:0.400211
G1 X121.335 Y120.251 E3.91062
;WIDTH:0.359999
G1 X123.481 Y120.251 E3.96223
;WIDTH:0.385398
G1 X123.637 Y120.224 E3.96633
;WIDTH:0.410797
G1 X123.792 Y120.197 E3.97073
;WIDTH:0.447319
G1 X123.861 Y120.151 E3.97326
;WIDTH:0.483841
G1 X123.93 Y120.106 E3.97601
;WIDTH:0.520362
G1 X123.999 Y120.061 E3.97899
G1 X123.968 Y120.226 E3.98504
;WIDTH:0.480272
G1 X123.938 Y120.391 E3.99059
;WIDTH:0.440181
G1 X123.907 Y120.555 E3.99563
;WIDTH:0.40009
G1 X123.876 Y120.72 E4.00017
;WIDTH:0.359999
G1 X123.668 Y121.176 E4.01222
G1 X123.062 Y122.148 E4.03976
G1 X122.401 Y122.836 E4.06271
G1 X121.792 Y123.323 E4.08146
G1 X121.345 Y123.571 E4.09375
G1 X120.853 Y123.758 E4.10641
G1 X119.998 Y123.935 E4.12741
G1 X100.19 Y123.935 E4.60379
G1 X99.816 Y123.897 E4.61284
G1 X99.014 Y123.708 E4.63264
G1 X98.537 Y123.505 E4.64511
G1 X98.063 Y123.218 E4.65844
G1 X97.606 Y122.845 E4.67263
G1 X96.937 Y122.148 E4.69586
G1 X96.692 Y121.729 E4.70754
G1 X96.33 Y121.176 E4.72343
G1 X96.123 Y120.721 E4.73546
;WIDTH:0.400169
G1 X96.092 Y120.556 E4.74001
;WIDTH:0.440339
G1 X96.061 Y120.391 E4.74506
;WIDTH:0.480509
G1 X96.03 Y120.226 E4.75061
;WIDTH:0.520678
G1 X96.009 Y120.117 E4.7546
G1 X96.319 Y119.769 F7800
;TYPE:External perimeter
;WIDTH:0.359999
G1 F1800
G1 X96.319 Y100.131 E5.22691
G1 X96.342 Y100.049 E5.22894
G1 X96.48 Y99.97 E5.23278
G1 X123.519 Y99.97 E5.88305
G1 X123.66 Y100.055 E5.88703
G1 X123.679 Y100.131 E5.8889
G1 X123.679 Y119.769 E6.36121
G1 X123.605 Y119.905 E6.36492
G1 X122.508 Y119.93 E6.39131
G1 X96.48 Y119.93 E7.01729
G1 X96.343 Y119.852 E7.02108
G1 X96.335 Y119.827 E7.02172
G1 X95.933 Y119.666 F7800
G1 X95.507 Y119.903
G1 F1800
G1 X95.5 Y100.131 E7.49723
G1 X95.555 Y99.702 E7.50763
G1 X95.875 Y99.019 E7.52578
G1 X96.162 Y98.5 E7.54003
G1 X96.612 Y97.99 E7.55638
G1 X96.82 Y97.667 E7.56563
G1 X97.249 Y97.202 E7.58084
G1 X97.652 Y96.801 E7.59452
G1 X98.081 Y96.462 E7.60765
G1 X98.552 Y96.186 E7.6208
G1 X99.075 Y95.969 E7.63441
G1 X99.974 Y95.74 E7.65672
G1 X120.027 Y95.744 E8.139
G1 X120.924 Y95.97 E8.16124
G1 X121.446 Y96.186 E8.17484
G1 X121.918 Y96.463 E8.18798
G1 X122.347 Y96.801 E8.20111
G1 X122.75 Y97.202 E8.21479
G1 X123.091 Y97.573 E8.22692
G1 X123.386 Y97.991 E8.23923
G1 X123.767 Y98.418 E8.25298
G1 X124.032 Y98.824 E8.26464
G1 X124.426 Y99.674 E8.28718
G1 X124.498 Y100.069 E8.29684
G1 X124.492 Y119.826 E8.77199
G1 X124.185 Y120.806 E8.79668
G1 X123.973 Y121.298 E8.80957
G1 X123.575 Y121.905 E8.82702
G1 X123.32 Y122.343 E8.83921
G1 X122.618 Y123.074 E8.86359
G1 X121.972 Y123.591 E8.8835
G1 X121.481 Y123.864 E8.89699
G1 X120.943 Y124.067 E8.91082
G1 X120.031 Y124.256 E8.93323
G1 X100.19 Y124.256 E9.41041
G1 X99.75 Y124.211 E9.42103
